icons/fill-new-media-picture-image-photo-circle.svg

<svg xmlns="http://www.w3.org/2000/svg" width="32px" height="32px" viewBox="0 0 32 32" version="1.1">
    <title>fill-new-media-picture-image-photo-circle</title>
    <g id="fill-new-media-picture-image-photo-circle" stroke-width="1" fill-rule="evenodd">
        <path d="M16,2 C23.7319865,2 30,8.2680135 30,16 C30,23.7319865 23.7319865,30 16,30 C8.2680135,30 2,23.7319865 2,16 C2,8.2680135 8.2680135,2 16,2 Z M27.857305,14.1437721 L20.5400839,21.4599902 C20.2212095,21.7788209 19.7283997,21.8447998 19.3368866,21.6210781 L13.6631669,18.3789525 C13.2716287,18.1552164 12.7787846,18.2212195 12.4599146,18.5400954 L7.02942375,23.9706868 C9.22748136,26.4426927 12.4318764,28 16,28 C22.627417,28 28,22.627417 28,16 C28,15.3686844 27.9512485,14.7487553 27.857305,14.1437721 Z M19,9 C17.8954305,9 17,9.8954305 17,11 C17,12.1045695 17.8954305,13 19,13 C20.1045695,13 21,12.1045695 21,11 C21,9.8954305 20.1045695,9 19,9 Z" id="&#24418;&#29366;" />
    </g>
</svg>

<svg xmlns="http://www.w3.org/2000/svg" viewBox="0 0 32 32"><path fill="currentColor" d="M16 2c7.732 0 14 6.268 14 14s-6.268 14-14 14S2 23.732 2 16 8.268 2 16 2m11.857 12.144L20.54 21.46a1 1 0 0 1-1.203.161l-5.674-3.242a1 1 0 0 0-1.203.161l-5.43 5.43A11.97 11.97 0 0 0 16 28c6.627 0 12-5.373 12-12 0-.631-.049-1.251-.143-1.856M19 9a2 2 0 1 0 0 4 2 2 0 0 0 0-4"/></svg>
